X: 141
M: C|
L: 1/8
K: C
V: 1
|:\
|: gcga gede | gcga gage | fage dcde | cGAG cGAc :|
V: 2 clef=bass middle=d
|:\
c2c2 d2d2 | c2c2 c2c2 | f2e2 d2d2 | c2c2 c2c2 :|
|: c2c2 d2d2 |
c2c2 c2c2 | f2e2 d2d2 | c2c2 c2c2 :|

